img/facebook.svg

<svg width="54" height="12" viewBox="0 0 54 12" fill="none" xmlns="http://www.w3.org/2000/svg">
<path d="M28.3764 5.98642C27.9213 5.98642 27.5932 6.13566 27.2605 6.2877V9.72815C27.5792 9.75851 27.7618 9.75851 28.0641 9.75851C29.1565 9.75851 29.3063 9.25823 29.3063 8.55973V6.91656C29.3063 6.40072 29.1351 5.98642 28.3764 5.98642ZM21.1215 5.79865C20.3636 5.79865 20.1906 6.21474 20.1906 6.73007V7.01962H22.0514V6.73007C22.0514 6.21474 21.8784 5.79865 21.1215 5.79865ZM7.06738 9.37967C7.06738 9.78734 7.25973 9.99908 7.68424 9.99908C8.13961 9.99908 8.40927 9.85061 8.74168 9.69805V8.88194H7.74598C7.27453 8.88194 7.06738 8.9697 7.06738 9.37967ZM35.4336 5.98642C34.6744 5.98642 34.4113 6.40072 34.4113 6.91656V8.79903C34.4113 9.31614 34.6744 9.73172 35.4336 9.73172C36.1908 9.73172 36.4558 9.31614 36.4558 8.79903V6.91656C36.4556 6.40072 36.1905 5.98642 35.4336 5.98642ZM3.34682 11.4905H1.1151V6.08872H0V4.22742H1.11535V3.10951C1.11535 1.59083 1.74471 0.687988 3.53356 0.687988H5.02291V2.5498H4.092C3.39555 2.5498 3.34962 2.81001 3.34962 3.29549L3.34682 4.22716H5.03311L4.83591 6.08846H3.34682V11.4905ZM10.9739 11.5045H9.11389L9.03353 11.0341C8.18426 11.5045 7.42632 11.5808 6.9263 11.5808C5.56221 11.5808 4.83616 10.6695 4.83616 9.40926C4.83616 7.92246 5.68339 7.39183 7.19901 7.39183H8.74168V7.07039C8.74168 6.31143 8.65469 6.08872 7.48755 6.08872H5.57931L5.76579 4.22742H7.85159C10.4124 4.22742 10.9739 5.03638 10.9739 7.08544V11.5045ZM17.2989 6.2252C16.1415 6.02672 15.8091 5.9831 15.2521 5.9831C14.2518 5.9831 13.9495 6.20377 13.9495 7.0533V8.66025C13.9495 9.50977 14.2518 9.73147 15.2521 9.73147C15.8091 9.73147 16.1415 9.68708 17.2989 9.48783V11.3035C16.2851 11.5308 15.6246 11.5905 15.0664 11.5905C12.6704 11.5905 11.7181 10.3305 11.7181 8.51024V7.20636C11.7181 5.38461 12.6704 4.12231 15.0664 4.12231C15.6246 4.12231 16.2851 4.18226 17.2989 4.41059V6.2252ZM24.2829 8.51024H20.1904V8.66025C20.1904 9.50977 20.4929 9.73147 21.493 9.73147C22.392 9.73147 22.9407 9.68708 24.0961 9.48783V11.3035C22.9818 11.5308 22.4012 11.5905 21.308 11.5905C18.9117 11.5905 17.9589 10.3305 17.9589 8.51024V7.01937C17.9589 5.4267 18.6658 4.12231 21.1213 4.12231C23.5767 4.12231 24.2829 5.41165 24.2829 7.01937V8.51024ZM31.5375 8.54468C31.5375 10.3039 31.0347 11.5872 27.9886 11.5872C26.8886 11.5872 26.2434 11.4905 25.0293 11.3037V1.24719L27.2603 0.874986V4.39273C27.7424 4.21364 28.3664 4.12257 28.9343 4.12257C31.1655 4.12257 31.5372 5.12286 31.5372 6.73032L31.5375 8.54468ZM38.6891 8.58295C38.6891 10.1006 38.0625 11.5726 35.441 11.5726C32.8182 11.5726 32.1799 10.1006 32.1799 8.58295V7.11758C32.1799 5.59916 32.8182 4.1269 35.441 4.1269C38.0625 4.1269 38.6891 5.59916 38.6891 7.11758V8.58295ZM45.8358 8.58295C45.8358 10.1006 45.2085 11.5726 42.5874 11.5726C39.9646 11.5726 39.3263 10.1006 39.3263 8.58295V7.11758C39.3263 5.59916 39.9646 4.1269 42.5874 4.1269C45.2085 4.1269 45.8358 5.59916 45.8358 7.11758V8.58295ZM53.17 11.4905H50.7518L48.7066 8.0763V11.4905H46.4748V1.24694L48.7066 0.874731V7.46913L50.7518 4.22742H53.17L50.9373 7.76506L53.17 11.4905ZM42.5798 5.98642C41.8218 5.98642 41.5588 6.40072 41.5588 6.91656V8.79903C41.5588 9.31614 41.8218 9.73172 42.5798 9.73172C43.3367 9.73172 43.6046 9.31614 43.6046 8.79903V6.91656C43.6046 6.40072 43.3367 5.98642 42.5798 5.98642Z" fill="#3B5998"/>
</svg>

<svg width="54" height="12" fill="none" xmlns="http://www.w3.org/2000/svg"><path d="M28.376 5.986c-.455 0-.783.15-1.116.302v3.44c.32.03.502.03.804.03 1.093 0 1.242-.5 1.242-1.198V6.917c0-.516-.17-.93-.93-.93ZM21.121 5.8c-.757 0-.93.416-.93.931v.29h1.86v-.29c0-.515-.173-.931-.93-.931ZM7.068 9.379c0 .408.193.62.617.62.456 0 .725-.148 1.058-.301v-.816h-.996c-.471 0-.679.088-.679.498Zm28.367-3.393c-.76 0-1.023.415-1.023.93V8.8c0 .517.263.933 1.023.933.757 0 1.022-.416 1.022-.933V6.917c0-.516-.266-.93-1.022-.93ZM3.347 11.491H1.115V6.089H0V4.227h1.115V3.11c0-1.52.63-2.422 2.419-2.422h1.489V2.55h-.931c-.696 0-.742.26-.742.745l-.003.932h1.686l-.197 1.861h-1.49v5.403Zm7.627.014h-1.86l-.08-.47c-.85.47-1.608.546-2.108.546-1.364 0-2.09-.912-2.09-2.172 0-1.487.847-2.017 2.363-2.017h1.543V7.07c0-.759-.087-.981-1.254-.981H5.579l.187-1.862h2.086c2.56 0 3.122.81 3.122 2.858v4.42Zm6.325-5.28c-1.157-.198-1.49-.242-2.047-.242-1 0-1.303.22-1.303 1.07V8.66c0 .85.303 1.071 1.303 1.071.557 0 .89-.044 2.047-.243v1.816c-1.014.227-1.674.287-2.233.287-2.396 0-3.348-1.26-3.348-3.08V7.205c0-1.821.952-3.084 3.348-3.084.559 0 1.22.06 2.233.289v1.814Zm6.984 2.285H20.19v.15c0 .85.303 1.071 1.303 1.071.899 0 1.448-.044 2.603-.243v1.816c-1.114.227-1.695.287-2.788.287-2.396 0-3.35-1.26-3.35-3.08V7.018c0-1.592.708-2.897 3.163-2.897 2.456 0 3.162 1.29 3.162 2.897V8.51Zm7.255.035c0 1.759-.503 3.042-3.55 3.042-1.1 0-1.745-.096-2.959-.283V1.247L27.26.875v3.518c.482-.18 1.106-.27 1.674-.27 2.232 0 2.603 1 2.603 2.607v1.815Zm7.151.038c0 1.518-.627 2.99-3.248 2.99-2.623 0-3.261-1.472-3.261-2.99V7.118c0-1.519.638-2.991 3.261-2.991 2.621 0 3.248 1.472 3.248 2.99v1.466Zm7.147 0c0 1.518-.627 2.99-3.249 2.99s-3.26-1.472-3.26-2.99V7.118c0-1.519.638-2.991 3.26-2.991 2.621 0 3.249 1.472 3.249 2.99v1.466Zm7.334 2.908h-2.418l-2.045-3.415v3.415h-2.232V1.247l2.232-.372v6.594l2.045-3.242h2.418l-2.233 3.538 2.233 3.726ZM42.58 5.986c-.758 0-1.021.415-1.021.93V8.8c0 .517.263.933 1.02.933.758 0 1.026-.416 1.026-.933V6.917c0-.516-.268-.93-1.025-.93Z" fill="#3B5998"/></svg>
